packages/kaspersky-hexa-ui-icons/src/iconsSVGs/64x42/FlagXk.svg

<svg xmlns="http://www.w3.org/2000/svg" width="64" height="42" fill="none" viewBox="0 0 64 42"><g clip-path="url(#a)"><rect width="64" height="42" fill="#fff" rx="5"/><path fill="#244aa5" d="M0 0h64v42H0z"/><path fill="#d0a650" d="M32.3348 12.9016c.2591.3024.4326.6046.4326.9721-.2175.1076-.5181.1515-.6916.3459 1.0802-.1516 1.2954 1.1011 2.5053.6257.0439.1735.2174.3249.4325.2595l.1296-.345c.4742-.1296.3446.6476.8649.4961.2593.2163.0858.583.2593.8433 0 .3018.1297.5609.2591.82.1296-.1504.2152-.3667.5181-.3019.2152.2372.3887.4535.4325.7125-.0878.4974-.2173.9288.3008 1.1878v.1515c.347.1515 1.1243-.1515 1.1243.4534-.0441.2164.2151.022.303.1515.2152-.0867.5182-.0427.7772-.0427.2152.4534-.259.7772-.3886 1.1878.2151.2152.1296.6049.0856.8628l-.1296.0648c.3447.0648.7772-.0416 1.0803.1527l.5621.2151c.2591-.1503.5599-.1734.9068-.1503.2591.1944-.0878.5182.1296.6686.3031 0 .5621.044.6038.3031l.0439.0855c.2152-.3886.8212-.1296 1.0803-.4094.4326 0 .5181.4743.7333.7334.0879.6707-.7333.9739-.4742 1.6424-.1735.3237-.5182.5829-.7772.8859.0855.0439.0415.1504.0415.2151-.259.1528-.0415.6061-.3886.6479-.0416.2821-.5598.1734-.3886.4764.3469.4534-.1712.7334-.1712 1.1451-.2175.2382-.65-.2175-.65.2382-.2591.0648-.5182-.2382-.6894.0209-.0878.3031.1712.4094.1296.7125.4303-.044.5599.3886.7334.6477l.4325.4326c-.4325.3446-.9947-.044-1.513.1503-.1295-.0648 0-.236-.1295-.3007-.1296-.1528-.3886-.1528-.6038-.1945.0417.1945-.3469.2591-.1734.4951 0 .0647.0855.2591-.0857.2591-.347.1088-.303-.3007-.6061-.1504-.3886.1504-.0855.7334-.6476.6686.0855.5205-.8629.8652-.2152 1.3186.0855.0857.0416.2591.0416.3886-.3887.347-1.0781.2175-1.5106.0879-.347-.0879-.1296-.5205-.259-.7564-.1296-.2174-.5182-.3678-.5182-.6709-.2593-.1065-.4765-.1733-.65-.3886-.6038.583-1.3392 1.145-2.2023 1.1659-.3886.1943-.606.9739-1.2098.6499-.2371.3888-.9508 0-.9936.56-.2811.1086-.1515.4764-.3238.6476-.0648.4326 0 .8003.3666 1.0596.1515.3237-.3239.3237-.1296.6269.0441.1064 0 .259-.0647.3029-.1296.0648-.1723.1297-.1296.2592-.1075 0-.1514.0647-.2371.1503-.1087.2152-.4534.3238-.6916.4742-.2372.0648-.4106-.1064-.561-.259-.044.2382-.2383.3678-.4754.3678-.3458 0-.281-.3031-.5402-.4326.1076-.3887-.2382-.5599-.1295-.9068.281-.2152.7553-.3678.6257-.8212-.3018-.3656-.1943-.9068-.4962-1.3394-.1943-.1712-.5181-.4302-.4106-.842.2811-.3238 0-.7125-.1514-1.0572-.0648-.2821-.2372-.5412-.2372-.8651-.4753-.2799-.4973-1.0155-1.167-1.0803-.4753 0-.561-.6038-1.0363-.5621-.0439-.0856-.1515-.1503-.2383-.236-.3446.236-.7772-.0647-1.2087.0416-.281-.4742.2371-1.1219-.5193-1.4042v-.3006c.0868.0415.1296-.0441.1515-.088.0429-.3238-.5401-.3655-.3018-.7333-.1296-.1087-.2811-.1527-.1943-.3678-.325-.6686-1.2966-.6038-1.5129-1.2746.1735-.1503.1735-.3031.2383-.4325-.1516-.2592-.1943-.5391-.1516-.819.1516-.044.2372-.2382.3239-.3909-.1943-.1295-.4315-.3238-.6477-.2591-.3886-.0647-.6698-.3655-1.0156-.539-.0867-.0856-.0427-.2382-.0427-.3447.4753-.1527-.0647-.8224.5182-.7356.1515-.1943.4753-.2591.7125-.4106.2383-.0427.4326.044.6697.1088.1943.2579.5401.1504.7344.3666.1943-.0439.4326-.1516.6697-.0439 0-.3667.1724-.583.4325-.8421.0429-.1504.28-.2591.4743-.3447.3679.0856.7993.0856 1.0595-.1735.1724.1086.3239-.1076.5182-.1076.237-.0439.4314.0208.6049.1296.0208-.4326.7772-.0648.9288-.583.1724-.3459-.4754-.4754-.4326-.7784-.1076-.3459.1515-.5182.281-.7553.1515-.0648.3239-.1515.5182-.1088.4973-.1723.1087-1.1878.908-.82 0 .1077-.044.2371.0208.2591.281 0 .3242-.3241.5193-.4325.0856-.3019-.1086-.6697.1504-.9069.1296-.0219.2382-.0647.3239-.1734 0-.2372-.1296-.3666-.3239-.5182-.0647.1079-.2371.022-.3455.0648 0-.2591-.1507-.4314-.1947-.6697-.1295-.0648-.1943-.1723-.1503-.3239.1943-.1943 0-.6697.4534-.5619.1724-.1506.4753-.043.6477-.3021.4535-.2591 1.0583-.2591 1.4042-.7344.1514.0219.3238-.1296.4753 0 .0429.2809.4535.1722.4535.4319"/><path fill="#fff" d="m35.679 7.045-.597-1.836-.59 1.836H32.56l1.563 1.135-.597 1.836 1.556-1.135 1.563 1.136-.597-1.836 1.563-1.135zm6.076 1.069-.597-1.828-.59 1.829h-1.932l1.563 1.136-.597 1.836 1.556-1.135 1.563 1.136-.597-1.836 1.563-1.135zm5.795 2.109-.59-1.829-.597 1.829h-1.932l1.563 1.135-.597 1.836 1.563-1.135 1.556 1.135-.597-1.836 1.563-1.135zM29.508 7.045l-.59-1.836-.597 1.836h-1.932l1.563 1.135-.597 1.836 1.563-1.135 1.556 1.136-.597-1.836 1.563-1.135zm-6.076 1.069-.59-1.828-.597 1.829h-1.932l1.563 1.136-.597 1.836 1.563-1.135 1.556 1.136-.597-1.836 1.563-1.135zm-5.795 2.109-.597-1.829-.59 1.829h-1.932l1.563 1.135-.597 1.836 1.556-1.135 1.563 1.135-.597-1.836 1.563-1.135z"/></g><defs><clipPath id="a"><rect width="64" height="42" fill="#fff" rx="5"/></clipPath></defs></svg>

<svg width="64" height="42" viewBox="0 0 64 42" fill="none" xmlns="http://www.w3.org/2000/svg">
<g clip-path="url(#clip0_41916_236)">
<rect width="64" height="42" rx="5" fill="white"/>
<path d="M0 0H64V42H0V0Z" fill="#244AA5"/>
<path d="M32.3348 12.9016C32.5939 13.204 32.7674 13.5062 32.7674 13.8737C32.5499 13.9813 32.2493 14.0252 32.0758 14.2196C33.156 14.068 33.3712 15.3207 34.5811 14.8453C34.625 15.0188 34.7985 15.1702 35.0136 15.1048L35.1432 14.7598C35.6174 14.6302 35.4878 15.4074 36.0081 15.2559C36.2674 15.4722 36.0939 15.8389 36.2674 16.0992C36.2674 16.401 36.3971 16.6601 36.5265 16.9192C36.6561 16.7688 36.7417 16.5525 37.0446 16.6173C37.2598 16.8545 37.4333 17.0708 37.4771 17.3298C37.3893 17.8272 37.2598 18.2586 37.7779 18.5176V18.6691C38.1249 18.8206 38.9022 18.5176 38.9022 19.1225C38.8581 19.3389 39.1173 19.1445 39.2052 19.274C39.4204 19.1873 39.7234 19.2313 39.9824 19.2313C40.1976 19.6847 39.7234 20.0085 39.5938 20.4191C39.8089 20.6343 39.7234 21.024 39.6794 21.2819L39.5498 21.3467C39.8945 21.4115 40.327 21.3051 40.6301 21.4994L41.1922 21.7145C41.4513 21.5642 41.7521 21.5411 42.099 21.5642C42.3581 21.7586 42.0112 22.0824 42.2286 22.2328C42.5317 22.2328 42.7907 22.2768 42.8324 22.5359L42.8763 22.6214C43.0915 22.2328 43.6975 22.4918 43.9566 22.212C44.3892 22.212 44.4747 22.6863 44.6899 22.9454C44.7778 23.6161 43.9566 23.9193 44.2157 24.5878C44.0422 24.9115 43.6975 25.1707 43.4385 25.4737C43.524 25.5176 43.48 25.6241 43.48 25.6888C43.221 25.8416 43.4385 26.2949 43.0914 26.3367C43.0498 26.6188 42.5316 26.5101 42.7028 26.8131C43.0497 27.2665 42.5316 27.5465 42.5316 27.9582C42.3141 28.1964 41.8816 27.7407 41.8816 28.1964C41.6225 28.2612 41.3634 27.9582 41.1922 28.2173C41.1044 28.5204 41.3634 28.6267 41.3218 28.9298C41.7521 28.8858 41.8817 29.3184 42.0552 29.5775L42.4877 30.0101C42.0552 30.3547 41.493 29.9661 40.9747 30.1604C40.8452 30.0956 40.9747 29.9244 40.8452 29.8597C40.7156 29.7069 40.4566 29.7069 40.2414 29.6652C40.2831 29.8597 39.8945 29.9243 40.068 30.1603C40.068 30.225 40.1535 30.4194 39.9823 30.4194C39.6353 30.5282 39.6793 30.1187 39.3762 30.269C38.9876 30.4194 39.2907 31.0024 38.7286 30.9376C38.8141 31.4581 37.8657 31.8028 38.5134 32.2562C38.5989 32.3419 38.555 32.5153 38.555 32.6448C38.1663 32.9918 37.4769 32.8623 37.0444 32.7327C36.6974 32.6448 36.9148 32.2122 36.7854 31.9763C36.6558 31.7589 36.2672 31.6085 36.2672 31.3054C36.0079 31.1989 35.7907 31.1321 35.6172 30.9168C35.0134 31.4998 34.278 32.0618 33.4149 32.0827C33.0263 32.277 32.8089 33.0566 32.2051 32.7326C31.968 33.1214 31.2543 32.7326 31.2115 33.2926C30.9304 33.4012 31.06 33.769 30.8877 33.9402C30.8229 34.3728 30.8877 34.7405 31.2543 34.9998C31.4058 35.3235 30.9304 35.3235 31.1247 35.6267C31.1688 35.7331 31.1247 35.8857 31.06 35.9296C30.9304 35.9944 30.8877 36.0593 30.9304 36.1888C30.8229 36.1888 30.779 36.2535 30.6933 36.3391C30.5846 36.5543 30.2399 36.6629 30.0017 36.8133C29.7645 36.8781 29.5911 36.7069 29.4407 36.5543C29.3967 36.7925 29.2024 36.9221 28.9653 36.9221C28.6195 36.9221 28.6843 36.619 28.4251 36.4895C28.5327 36.1008 28.1869 35.9296 28.2956 35.5827C28.5766 35.3675 29.0509 35.2149 28.9213 34.7615C28.6195 34.3959 28.727 33.8547 28.4251 33.4221C28.2308 33.2509 27.907 32.9919 28.0145 32.5801C28.2956 32.2563 28.0145 31.8676 27.8631 31.5229C27.7983 31.2408 27.6259 30.9817 27.6259 30.6578C27.1506 30.3779 27.1286 29.6423 26.4589 29.5775C25.9836 29.5775 25.8979 28.9737 25.4226 29.0154C25.3787 28.9298 25.2711 28.8651 25.1843 28.7794C24.8397 29.0154 24.4071 28.7147 23.9756 28.821C23.6946 28.3468 24.2127 27.6991 23.4563 27.4168V27.1162C23.5431 27.1577 23.5859 27.0721 23.6078 27.0282C23.6507 26.7044 23.0677 26.6627 23.306 26.2949C23.1764 26.1862 23.0249 26.1422 23.1117 25.9271C22.7867 25.2585 21.8151 25.3233 21.5988 24.6525C21.7723 24.5022 21.7723 24.3494 21.8371 24.22C21.6855 23.9608 21.6428 23.6809 21.6855 23.401C21.8371 23.357 21.9227 23.1628 22.0094 23.0101C21.8151 22.8806 21.5779 22.6863 21.3617 22.751C20.9731 22.6863 20.6919 22.3855 20.3461 22.212C20.2594 22.1264 20.3034 21.9738 20.3034 21.8673C20.7787 21.7146 20.2387 21.0449 20.8216 21.1317C20.9731 20.9374 21.2969 20.8726 21.5341 20.7211C21.7724 20.6784 21.9667 20.7651 22.2038 20.8299C22.3981 21.0878 22.7439 20.9803 22.9382 21.1965C23.1325 21.1526 23.3708 21.0449 23.6079 21.1526C23.6079 20.7859 23.7803 20.5696 24.0404 20.3105C24.0833 20.1601 24.3204 20.0514 24.5147 19.9658C24.8826 20.0514 25.314 20.0514 25.5742 19.7923C25.7466 19.9009 25.8981 19.6847 26.0924 19.6847C26.3294 19.6408 26.5238 19.7055 26.6973 19.8143C26.7181 19.3817 27.4745 19.7495 27.6261 19.2313C27.7985 18.8854 27.1507 18.7559 27.1935 18.4529C27.0859 18.107 27.345 17.9347 27.4745 17.6976C27.626 17.6328 27.7984 17.5461 27.9927 17.5888C28.49 17.4165 28.1014 16.401 28.9007 16.7688C28.9007 16.8765 28.8567 17.0059 28.9215 17.0279C29.2025 17.0279 29.2457 16.7038 29.4408 16.5954C29.5264 16.2935 29.3322 15.9257 29.5912 15.6885C29.7208 15.6666 29.8294 15.6238 29.9151 15.5151C29.9151 15.2779 29.7855 15.1485 29.5912 14.9969C29.5265 15.1048 29.3541 15.0189 29.2457 15.0617C29.2457 14.8026 29.095 14.6303 29.051 14.392C28.9215 14.3272 28.8567 14.2197 28.9007 14.0681C29.095 13.8738 28.9007 13.3984 29.3541 13.5062C29.5265 13.3556 29.8294 13.4632 30.0018 13.2041C30.4553 12.945 31.0601 12.945 31.406 12.4697C31.5574 12.4916 31.7298 12.3401 31.8813 12.4697C31.9242 12.7506 32.3348 12.6419 32.3348 12.9016Z" fill="#D0A650"/>
<path d="M35.6791 7.04472L35.0819 5.2088L34.4921 7.04472H32.5603L34.1234 8.18018L33.5262 10.0161L35.0819 8.88063L36.645 10.0161L36.0478 8.18018L37.6109 7.04472H35.6791Z" fill="white"/>
<path d="M41.7547 8.11382L41.1575 6.28528L40.5676 8.11382H38.6359L40.199 9.24929L39.6017 11.0852L41.1575 9.94974L42.7206 11.0852L42.1234 9.24929L43.6865 8.11382H41.7547Z" fill="white"/>
<path d="M47.55 10.2226L46.9601 8.39401L46.3629 10.2226H44.4312L45.9943 11.358L45.397 13.1939L46.9601 12.0585L48.5159 13.1939L47.9187 11.358L49.4818 10.2226H47.55Z" fill="white"/>
<path d="M29.5079 7.04472L28.918 5.2088L28.3208 7.04472H26.389L27.9521 8.18018L27.3549 10.0161L28.918 8.88063L30.4738 10.0161L29.8765 8.18018L31.4397 7.04472H29.5079Z" fill="white"/>
<path d="M23.4324 8.11382L22.8426 6.28528L22.2454 8.11382H20.3136L21.8767 9.24929L21.2795 11.0852L22.8426 9.94974L24.3983 11.0852L23.8011 9.24929L25.3642 8.11382H23.4324Z" fill="white"/>
<path d="M17.637 10.2226L17.0398 8.39401L16.45 10.2226H14.5182L16.0813 11.358L15.4841 13.1939L17.0398 12.0585L18.6029 13.1939L18.0057 11.358L19.5688 10.2226H17.637Z" fill="white"/>
</g>
<defs>
<clipPath id="clip0_41916_236">
<rect width="64" height="42" rx="5" fill="white"/>
</clipPath>
</defs>
</svg>
